X:1879
T:Bourrée - Le fendeur
C:F. Paris
M:3/8
L:1/16
K:C
d2|cBA2G2|D4G2|A2AGAB|c2dcBA|B2G2d2|\
cBA2G2|D4G2|A2AGAB|c2dcBA|G4:|
|:AB|c2dcBc|dcB2A2|B2G2B2|\
c2dcBc|1 dcB2A2|G4:|2 dedcBA|G4||


